;FLAVOR:Marlin
;TIME:20286
;Filament used: 12.9978m
;Layer height: 0.2
;MINX:44.9
;MINY:70.401
;MINZ:0.24
;MAXX:175.1
;MAXY:149.6
;MAXZ:25.29
;Generated with Cura_SteamEngine 5.0.0
M140 S60
M105
M190 S60
M104 S210
M105
M109 S210
M82 ;absolute extrusion mode
; Ender 3 Custom Start G-code
G92 E0 ; Reset Extruder
G28 ; Home all axes
G1 Z2.0 F3000 ; Move Z Axis up little to prevent scratching of Heat Bed
G1 X0.1 Y20 Z0.3 F5000.0 ; Move to start position
G1 X0.1 Y200.0 Z0.3 F1500.0 E15 ; Draw the first line
G1 X0.4 Y200.0 Z0.3 F5000.0 ; Move to side a little
G1 X0.4 Y20 Z0.3 F1500.0 E30 ; Draw the second line
G92 E0 ; Reset Extruder
G1 Z2.0 F3000 ; Move Z Axis up little to prevent scratching of Heat Bed
G1 X5 Y20 Z0.3 F5000.0 ; Move over to prevent blob squish
G92 E0
G92 E0
G1 F1500 E-6.5
;LAYER_COUNT:120
;LAYER:-6
M107
G0 F9000 X50.024 Y73.9 Z0.24
;TYPE:SUPPORT-INTERFACE
G1 F1500 E0
G1 F1125 X49.304 Y74.554 E0.07764
G1 X48.677 Y75.205 E0.14979
G1 X47.995 Y76.016 E0.23438
G1 X47.632 Y76.514 E0.28357
G1 X47.381 Y76.865 E0.31802
G1 X47.219 Y77.119 E0.34206
G1 X46.73 Y77.931 E0.41773
G1 X46.324 Y78.719 E0.48849
G1 X46.208 Y78.976 E0.51099
G1 X45.897 Y79.706 E0.57433
G1 X45.551 Y80.707 E0.65888
G1 X45.478 Y80.962 E0.68005
G1 X45.236 Y81.903 E0.75761
G1 X45.072 Y82.79 E0.82961
G1 X45.039 Y83.041 E0.84982
G1 X44.948 Y83.86 E0.9156
G1 X44.901 Y85.009 E1.00739
G1 X44.901 Y108.94 E2.91767
G1 X44.909 Y109.372 E2.95216
G1 X44.929 Y110.236 E3.02115
G1 X44.901 Y111.01 E3.08297
G1 X44.9 Y134.94 E4.99317
G1 X44.917 Y135.625 E5.04786
G1 X45.002 Y136.689 E5.13307
G1 X45.133 Y137.578 E5.2048
G1 X45.363 Y138.628 E5.2906
G1 X45.528 Y139.199 E5.33805
G1 X45.657 Y139.631 E5.37403
G1 X45.742 Y139.87 E5.39428
G1 X46.093 Y140.772 E5.47154
G1 X46.486 Y141.609 E5.54535
G1 X47.001 Y142.539 E5.63021
G1 X47.578 Y143.419 E5.71421
G1 X47.732 Y143.629 E5.735
G1 X48.232 Y144.278 E5.8004
G1 X48.4 Y144.474 E5.821
G1 X49.056 Y145.196 E5.89887
G1 X49.705 Y145.823 E5.97091
G1 X50.516 Y146.505 E6.05549
G1 X51.014 Y146.868 E6.10468
G1 X51.365 Y147.119 E6.13913
G1 X51.619 Y147.281 E6.16318
G1 X52.43 Y147.77 E6.23877
G1 X53.221 Y148.177 E6.30978
G1 X53.487 Y148.297 E6.33308
G1 X54.198 Y148.599 E6.39474
G1 X54.491 Y148.707 E6.41967
G1 X55.205 Y148.948 E6.47982
G1 X55.471 Y149.024 E6.5019
G1 X56.403 Y149.264 E6.57873
G1 X57.285 Y149.427 E6.65032
G1 X58.359 Y149.552 E6.73663
G1 X59.492 Y149.599 E6.82715
G1 X109.44 Y149.6 E10.81422
G1 X110.036 Y149.591 E10.8618
G1 X110.462 Y149.599 E10.89581
G1 X160.437 Y149.599 E14.88503
G1 X160.715 Y149.594 E14.90722
G1 X161.128 Y149.583 E14.9402
G1 X162.189 Y149.498 E15.02517
G1 X163.077 Y149.367 E15.09682
G1 X164.125 Y149.138 E15.18245
G1 X164.768 Y148.948 E15.23597
G1 X165.301 Y148.784 E15.28049
G1 X166.288 Y148.4 E15.36502
G1 X167.114 Y148.012 E15.43787
G1 X167.633 Y147.724 E15.48525
G1 X168.174 Y147.416 E15.53494
G1 X168.92 Y146.922 E15.60637
G1 X169.136 Y146.764 E15.62773
G1 X169.78 Y146.268 E15.69262
G1 X169.976 Y146.1 E15.71322
G1 X170.696 Y145.446 E15.79087
G1 X171.323 Y144.795 E15.86301
G1 X172.005 Y143.984 E15.9476
G1 X172.368 Y143.486 E15.99679
G1 X172.619 Y143.135 E16.03124
G1 X172.781 Y142.881 E16.05529
G1 X173.27 Y142.07 E16.13088
G1 X173.676 Y141.281 E16.20171
G1 X173.792 Y141.024 E16.22422
G1 X174.105 Y140.289 E16.28799
G1 X174.2 Y140.028 E16.31016
G1 X174.448 Y139.295 E16.37193
G1 X174.524 Y139.03 E16.39393
G1 X174.764 Y138.097 E16.47084
G1 X174.927 Y137.215 E16.54243
G1 X175.052 Y136.14 E16.62882
G1 X175.1 Y134.992 E16.72054
G1 X175.1 Y111.495 E18.59617
G1 X175.1 Y111.062 E18.63074
G1 X175.071 Y109.766 E18.73421
G1 X175.1 Y108.992 E18.79604
G1 X175.1 Y85.062 E20.70624
G1 X175.083 Y84.372 E20.76133
G1 X174.998 Y83.311 E20.8463
G1 X174.867 Y82.423 E20.91795
G1 X174.638 Y81.374 E21.00366
G1 X174.478 Y80.822 E21.04953
G1 X174.342 Y80.368 E21.08737
G1 X174.254 Y80.12 E21.10837
G1 X173.9 Y79.212 E21.18617
G1 X173.512 Y78.386 E21.25901
G1 X173.224 Y77.867 E21.30639
G1 X172.916 Y77.326 E21.35609
G1 X172.419 Y76.575 E21.42797
G1 X172.269 Y76.37 E21.44825
G1 X171.769 Y75.721 E21.51365
G1 X171.342 Y75.242 E21.56487
G1 X170.944 Y74.804 E21.61211
G1 X170.293 Y74.177 E21.68426
G1 X169.482 Y73.495 E21.76884
G1 X168.99 Y73.136 E21.81746
G1 X168.634 Y72.88 E21.85246
G1 X168.368 Y72.709 E21.87771
G1 X167.57 Y72.23 E21.952
G1 X166.78 Y71.824 E22.0229
G1 X166.522 Y71.708 E22.04548
G1 X165.802 Y71.401 E22.10796
G1 X165.533 Y71.302 E22.13084
G1 X164.797 Y71.052 E22.19289
G1 X164.533 Y70.977 E22.2148
G1 X163.597 Y70.736 E22.29195
G1 X162.717 Y70.573 E22.36339
G1 X161.639 Y70.448 E22.45002
G1 X160.508 Y70.401 E22.54038
G1 X110.56 Y70.401 E26.52744
G1 X109.907 Y70.408 E26.57957
G1 X109.538 Y70.402 E26.60903
G1 X59.563 Y70.401 E30.59825
G1 X59.285 Y70.406 E30.62045
G1 X58.872 Y70.417 E30.65342
G1 X57.811 Y70.502 E30.73839
G1 X56.923 Y70.633 E30.81004
G1 X55.875 Y70.862 E30.89567
G1 X55.233 Y71.052 E30.94911
G1 X54.699 Y71.216 E30.99371
G1 X53.712 Y71.6 E31.07825
G1 X52.886 Y71.988 E31.15109
G1 X52.367 Y72.276 E31.19847
G1 X51.826 Y72.584 E31.24817
G1 X51.08 Y73.078 E31.31959
G1 X50.864 Y73.236 E31.34095
G1 X50.22 Y73.732 E31.40584
G1 X50.024 Y73.9 E31.42644
G0 F9000 X49.776 Y74.666
G1 F1125 X124.307 Y149.198 E39.8402
G1 F1500 E33.3402
G1 F300 Z0.44
G0 F9000 X122.045 Y149.198 Z0.44
G1 F300 Z0.24
G1 F1500 E39.8402
G1 F1125 X48.674 Y75.827 E48.12295
G1 F1500 E41.62295
G1 F300 Z0.44
G0 F9000 X47.697 Y77.112 Z0.44
G1 F300 Z0.24
G1 F1500 E48.12295
G1 F1125 X119.782 Y149.198 E56.26059
G1 F1500 E49.76059
G1 F300 Z0.44
G0 F9000 X117.519 Y149.198 Z0.44
G1 F300 Z0.24
G1 F1500 E56.26059
G1 F1125 X46.865 Y78.544 E64.23662
G1 F1500 E57.73662
G1 F300 Z0.44
G0 F9000 X46.178 Y80.119 Z0.44
G1 F300 Z0.24
G1 F1500 E64.23662
G1 F1125 X115.256 Y149.198 E72.0348
G1 F1500 E65.5348
G1 F300 Z0.44
G0 F9000 X112.994 Y149.198 Z0.44
G1 F300 Z0.24
G1 F1500 E72.0348
G1 F1125 X45.659 Y81.863 E79.63616
G1 F1500 E73.13616
G1 F300 Z0.44
G0 F9000 X45.354 Y83.821 Z0.44
G1 F300 Z0.24
G1 F1500 E79.63616
G1 F1125 X110.731 Y149.198 E87.01648
G1 F1500 E80.51648
G1 F300 Z0.44
G0 F9000 X108.463 Y149.193 Z0.44
G1 F300 Z0.24
G1 F1500 E87.01648
G1 F1125 X45.3 Y86.03 E94.14686
G1 F1500 E87.64686
G1 F300 Z0.44
G0 F9000 X45.3 Y88.292 Z0.44
G1 F300 Z0.24
G1 F1500 E94.14686
G1 F1125 X106.201 Y149.193 E101.0219
G1 F1500 E94.5219
G1 F300 Z0.44
G0 F9000 X103.938 Y149.193 Z0.44
G1 F300 Z0.24
G1 F1500 E101.0219
G1 F1125 X45.3 Y90.555 E107.64146
G1 F1500 E101.14146
G1 F300 Z0.44
G0 F9000 X45.3 Y92.818 Z0.44
G1 F300 Z0.24
G1 F1500 E107.64146
G1 F1125 X101.676 Y149.193 E114.00561
G1 F1500 E107.50561
G1 F300 Z0.44
G0 F9000 X99.413 Y149.193 Z0.44
G1 F300 Z0.24
G1 F1500 E114.00561
G1 F1125 X45.3 Y95.081 E120.1143
G1 F1500 E113.6143
G1 F300 Z0.44
G0 F9000 X45.3 Y97.343 Z0.44
G1 F300 Z0.24
G1 F1500 E120.1143
G1 F1125 X97.15 Y149.193 E125.96758
G1 F1500 E119.46758
G1 F300 Z0.44
G0 F9000 X94.888 Y149.194 Z0.44
G1 F300 Z0.24
G1 F1500 E125.96758
G1 F1125 X45.3 Y99.606 E131.5655
G1 F1500 E125.0655
G1 F300 Z0.44
G0 F9000 X45.3 Y101.869 Z0.44
G1 F300 Z0.24
G1 F1500 E131.5655
G1 F1125 X92.626 Y149.194 E136.90801
G1 F1500 E130.40801
G1 F300 Z0.44
G0 F9000 X90.363 Y149.194 Z0.44
G1 F300 Z0.24
G1 F1500 E136.90801
G1 F1125 X45.3 Y104.132 E141.99505
G1 F1500 E135.49505
G1 F300 Z0.44
G0 F9000 X45.3 Y106.394 Z0.44
G1 F300 Z0.24
G1 F1500 E141.99505
G1 F1125 X88.101 Y149.195 E146.8268
G1 F1500 E140.3268
G1 F300 Z0.44
G0 F9000 X85.838 Y149.195 Z0.44
G1 F300 Z0.24
G1 F1500 E146.8268
G1 F1125 X45.3 Y108.657 E151.40308
G1 F1500 E144.90308
G1 F300 Z0.44
G0 F9000 X45.303 Y110.923 Z0.44
G1 F300 Z0.24
G1 F1500 E151.40308
G1 F1125 X83.575 Y149.195 E155.72355
G1 F1500 E149.22355
G1 F300 Z0.44
G0 F9000 X81.313 Y149.195 Z0.44
G1 F300 Z0.24
G1 F1500 E155.72355
G1 F1125 X45.3 Y113.182 E159.78901
G1 F1500 E153.28901
G1 F300 Z0.44
G0 F9000 X45.3 Y115.445 Z0.44
G1 F300 Z0.24
G1 F1500 E159.78901
G1 F1125 X79.051 Y149.195 E163.59906
G1 F1500 E157.09906
G1 F300 Z0.44
G0 F9000 X76.788 Y149.195 Z0.44
G1 F300 Z0.24
G1 F1500 E163.59906
G1 F1125 X45.3 Y117.707 E167.1537
G1 F1500 E160.6537
G1 F300 Z0.44
G0 F9000 X45.3 Y119.97 Z0.44
G1 F300 Z0.24
G1 F1500 E167.1537
G1 F1125 X74.525 Y149.195 E170.45287
G1 F1500 E163.95287
G1 F300 Z0.44
G0 F9000 X72.263 Y149.196 Z0.44
G1 F300 Z0.24
G1 F1500 E170.45287
G1 F1125 X45.3 Y122.233 E173.49669
G1 F1500 E166.99669
G1 F300 Z0.44
G0 F9000 X45.3 Y124.496 Z0.44
G1 F300 Z0.24
G1 F1500 E173.49669
G1 F1125 X70 Y149.196 E176.28503
G1 F1500 E169.78503
G1 F300 Z0.44
G0 F9000 X67.738 Y149.196 Z0.44
G1 F300 Z0.24
G1 F1500 E176.28503
G1 F1125 X45.3 Y126.758 E178.81803
G1 F1500 E172.31803
G1 F300 Z0.44
G0 F9000 X45.3 Y129.021 Z0.44
G1 F300 Z0.24
G1 F1500 E178.81803
G1 F1125 X65.475 Y149.197 E181.09561
G1 F1500 E174.59561
G1 F300 Z0.44
G0 F9000 X63.213 Y149.197 Z0.44
G1 F300 Z0.24
G1 F1500 E181.09561
G1 F1125 X45.3 Y131.284 E183.11779
G1 F1500 E176.61779
G1 F300 Z0.44
G0 F9000 X45.3 Y133.547 Z0.44
G1 F300 Z0.24
G1 F1500 E183.11779
G1 F1125 X60.95 Y149.197 E184.8845
G1 F1500 E178.3845
G1 F300 Z0.44
G0 F9000 X58.653 Y149.163 Z0.44
G1 F300 Z0.24
G1 F1500 E184.8845
G1 F1125 X45.336 Y135.845 E186.38789
G1 F1500 E179.88789
G1 F300 Z0.44
G0 F9000 X45.752 Y138.525 Z0.44
G1 F300 Z0.24
G1 F1500 E186.38789
G1 F1125 X55.961 Y148.734 E187.54037
G1 F1500 E181.04037
G1 F300 Z0.44
G0 F9000 X52.011 Y147.046 Z0.44
G1 F300 Z0.24
G1 F1500 E187.54037
G1 F1125 X47.437 Y142.472 E188.05672
G1 F1500 E181.55672
G1 F300 Z0.44
G0 F9000 X51.005 Y73.633 Z0.44
G1 F300 Z0.24
G1 F1500 E188.05672
G1 F1125 X126.57 Y149.198 E196.58715
G1 F1500 E190.08715
G1 F300 Z0.44
G0 F9000 X128.833 Y149.198 Z0.44
G1 F300 Z0.24
G1 F1500 E196.58715
G1 F1125 X52.371 Y72.735 E205.2189
G1 F1500 E198.7189
G1 F300 Z0.44
G0 F9000 X53.866 Y71.968 Z0.44
G1 F300 Z0.24
G1 F1500 E205.2189
G1 F1125 X131.096 Y149.198 E213.93729
G1 F1500 E207.43729
G1 F300 Z0.44
G0 F9000 X133.358 Y149.198 Z0.44
G1 F300 Z0.24
G1 F1500 E213.93729
G1 F1125 X55.541 Y71.38 E222.722
G1 F1500 E216.222
G1 F300 Z0.44
G0 F9000 X57.392 Y70.968 Z0.44
G1 F300 Z0.24
G1 F1500 E222.722
G1 F1125 X135.622 Y149.198 E231.55328
G1 F1500 E225.05328
G1 F300 Z0.44
G0 F9000 X137.885 Y149.198 Z0.44
G1 F300 Z0.24
G1 F1500 E231.55328
G1 F1125 X59.488 Y70.801 E240.40341
G1 F1500 E233.90341
G1 F300 Z0.44
G0 F9000 X61.749 Y70.8 Z0.44
G1 F300 Z0.24
G1 F1500 E240.40341
G1 F1125 X140.147 Y149.198 E249.25366
G1 F1500 E242.75366
G1 F300 Z0.44
G0 F9000 X142.41 Y149.198 Z0.44
G1 F300 Z0.24
G1 F1500 E249.25366
G1 F1125 X64.012 Y70.8 E258.1039
G1 F1500 E251.6039
G1 F300 Z0.44
G0 F9000 X66.274 Y70.8 Z0.44
G1 F300 Z0.24
G1 F1500 E258.1039
G1 F1125 X144.673 Y149.198 E266.9542
G1 F1500 E260.4542
G1 F300 Z0.44
G0 F9000 X146.936 Y149.198 Z0.44
G1 F300 Z0.24
G1 F1500 E266.9542
G1 F1125 X68.538 Y70.801 E275.80439
G1 F1500 E269.30439
G1 F300 Z0.44
G0 F9000 X70.801 Y70.801 Z0.44
G1 F300 Z0.24
G1 F1500 E275.80439
G1 F1125 X149.198 Y149.198 E284.65452
G1 F1500 E278.15452
G1 F300 Z0.44
G0 F9000 X151.461 Y149.198 Z0.44
G1 F300 Z0.24
G1 F1500 E284.65452
G1 F1125 X73.063 Y70.801 E293.50471
G1 F1500 E287.00471
G1 F300 Z0.44
G0 F9000 X75.326 Y70.801 Z0.44
G1 F300 Z0.24
G1 F1500 E293.50471
G1 F1125 X153.724 Y149.198 E302.35489
G1 F1500 E295.85489
G1 F300 Z0.44
G0 F9000 X155.987 Y149.198 Z0.44
G1 F300 Z0.24
G1 F1500 E302.35489
G1 F1125 X77.59 Y70.801 E311.20502
G1 F1500 E304.70502
G1 F300 Z0.44
G0 F9000 X79.852 Y70.801 Z0.44
G1 F300 Z0.24
G1 F1500 E311.20502
G1 F1125 X158.249 Y149.198 E320.05515
G1 F1500 E313.55515
G1 F300 Z0.44
G0 F9000 X160.511 Y149.197 Z0.44
G1 F300 Z0.24
G1 F1500 E320.05515
G1 F1125 X82.115 Y70.801 E328.90517
G1 F1500 E322.40517
G1 F300 Z0.44
G0 F9000 X84.378 Y70.801 Z0.44
G1 F300 Z0.24
G1 F1500 E328.90517
G1 F1125 X162.606 Y149.03 E337.73628
G1 F1500 E331.23628
G1 F300 Z0.44
G0 F9000 X164.458 Y148.618 Z0.44
G1 F300 Z0.24
G1 F1500 E337.73628
G1 F1125 X86.641 Y70.802 E346.52088
G1 F1500 E340.02088
G1 F300 Z0.44
G0 F9000 X88.904 Y70.802 Z0.44
G1 F300 Z0.24
G1 F1500 E346.52088
G1 F1125 X166.132 Y148.03 E355.23904
G1 F1500 E348.73904
G1 F300 Z0.44
G0 F9000 X167.628 Y147.263 Z0.44
G1 F300 Z0.24
G1 F1500 E355.23904
G1 F1125 X91.167 Y70.802 E363.87062
G1 F1500 E357.37062
G1 F300 Z0.44
G0 F9000 X93.43 Y70.803 Z0.44
G1 F300 Z0.24
G1 F1500 E363.87062
G1 F1125 X168.993 Y146.366 E372.40083
G1 F1500 E365.90083
G1 F300 Z0.44
G0 F9000 X170.222 Y145.332 Z0.44
G1 F300 Z0.24
G1 F1500 E372.40083
G1 F1125 X95.693 Y70.803 E380.81431
G1 F1500 E374.31431
G1 F300 Z0.44
G0 F9000 X97.956 Y70.803 Z0.44
G1 F300 Z0.24
G1 F1500 E380.81431
G1 F1125 X171.324 Y144.172 E389.09678
G1 F1500 E382.59678
G1 F300 Z0.44
G0 F9000 X172.302 Y142.886 Z0.44
G1 F300 Z0.24
G1 F1500 E389.09678
G1 F1125 X100.218 Y70.803 E397.23418
G1 F1500 E390.73418
G1 F300 Z0.44
G0 F9000 X102.482 Y70.804 Z0.44
G1 F300 Z0.24
G1 F1500 E397.23418
G1 F1125 X173.135 Y141.456 E405.21005
G1 F1500 E398.71005
G1 F300 Z0.44
G0 F9000 X173.823 Y139.882 Z0.44
G1 F300 Z0.24
G1 F1500 E405.21005
G1 F1125 X104.745 Y70.804 E413.00817
G1 F1500 E406.50817
G1 F300 Z0.44
G0 F9000 X107.007 Y70.804 Z0.44
G1 F300 Z0.24
G1 F1500 E413.00817
G1 F1125 X174.34 Y138.136 E420.60924
G1 F1500 E414.10924
G1 F300 Z0.44
G0 F9000 X174.644 Y136.177 Z0.44
G1 F300 Z0.24
G1 F1500 E420.60924
G1 F1125 X109.27 Y70.804 E427.98917
G1 F1500 E421.48917
G1 F300 Z0.44
G0 F9000 X111.533 Y70.804 Z0.44
G1 F300 Z0.24
G1 F1500 E427.98917
G1 F1125 X174.699 Y133.969 E435.11984
G1 F1500 E428.61984
G1 F300 Z0.44
G0 F9000 X174.699 Y131.707 Z0.44
G1 F300 Z0.24
G1 F1500 E435.11984
G1 F1125 X113.796 Y70.804 E441.99509
G1 F1500 E435.49509
G1 F300 Z0.44
G0 F9000 X116.058 Y70.804 Z0.44
G1 F300 Z0.24
G1 F1500 E441.99509
G1 F1125 X174.699 Y129.444 E448.61494
G1 F1500 E442.11494
G1 F300 Z0.44
G0 F9000 X174.699 Y127.181 Z0.44
G1 F300 Z0.24
G1 F1500 E448.61494
G1 F1125 X118.321 Y70.804 E454.97932
G1 F1500 E448.47932
G1 F300 Z0.44
G0 F9000 X120.584 Y70.804 Z0.44
G1 F300 Z0.24
G1 F1500 E454.97932
G1 F1125 X174.699 Y124.918 E461.08823
G1 F1500 E454.58823
G1 F300 Z0.44
G0 F9000 X174.699 Y122.656 Z0.44
G1 F300 Z0.24
G1 F1500 E461.08823
G1 F1125 X122.846 Y70.803 E466.94185
G1 F1500 E460.44185
G1 F300 Z0.44
G0 F9000 X125.109 Y70.803 Z0.44
G1 F300 Z0.24
G1 F1500 E466.94185
G1 F1125 X174.699 Y120.393 E472.54
G1 F1500 E466.04
G1 F300 Z0.44
G0 F9000 X174.699 Y118.13 Z0.44
G1 F300 Z0.24
G1 F1500 E472.54
G1 F1125 X127.371 Y70.803 E477.88273
G1 F1500 E471.38273
G1 F300 Z0.44
G0 F9000 X129.634 Y70.803 Z0.44
G1 F300 Z0.24
G1 F1500 E477.88273
G1 F1125 X174.699 Y115.867 E482.97
G1 F1500 E476.47
G1 F300 Z0.44
G0 F9000 X174.699 Y113.605 Z0.44
G1 F300 Z0.24
G1 F1500 E482.97
G1 F1125 X131.897 Y70.803 E487.80186
G1 F1500 E481.30186
G1 F300 Z0.44
G0 F9000 X134.16 Y70.803 Z0.44
G1 F300 Z0.24
G1 F1500 E487.80186
G1 F1125 X174.699 Y111.342 E492.37826
G1 F1500 E485.87826
G1 F300 Z0.44
G0 F9000 X174.696 Y109.076 Z0.44
G1 F300 Z0.24
G1 F1500 E492.37826
G1 F1125 X136.422 Y70.802 E496.69896
G1 F1500 E490.19896
G1 F300 Z0.44
G0 F9000 X138.684 Y70.802 Z0.44
G1 F300 Z0.24
G1 F1500 E496.69896
G1 F1125 X174.699 Y106.817 E500.76464
G1 F1500 E494.26464
G1 F300 Z0.44
G0 F9000 X174.699 Y104.554 Z0.44
G1 F300 Z0.24
G1 F1500 E500.76464
G1 F1125 X140.947 Y70.802 E504.57486
G1 F1500 E498.07486
G1 F300 Z0.44
G0 F9000 X143.21 Y70.802 Z0.44
G1 F300 Z0.24
G1 F1500 E504.57486
G1 F1125 X174.699 Y102.292 E508.12966
G1 F1500 E501.62966
G1 F300 Z0.44
G0 F9000 X174.699 Y100.029 Z0.44
G1 F300 Z0.24
G1 F1500 E508.12966
G1 F1125 X145.473 Y70.802 E511.429
G1 F1500 E504.929
G1 F300 Z0.44
G0 F9000 X147.735 Y70.802 Z0.44
G1 F300 Z0.24
G1 F1500 E511.429
G1 F1125 X174.699 Y97.766 E514.47293
G1 F1500 E507.97293
G1 F300 Z0.44
G0 F9000 X174.699 Y95.503 Z0.44
G1 F300 Z0.24
G1 F1500 E514.47293
G1 F1125 X149.997 Y70.801 E517.26151
G1 F1500 E510.76151
G1 F300 Z0.44
G0 F9000 X152.26 Y70.801 Z0.44
G1 F300 Z0.24
G1 F1500 E517.26151
G1 F1125 X174.699 Y93.241 E519.79467
G1 F1500 E513.29467
G1 F300 Z0.44
G0 F9000 X174.699 Y90.978 Z0.44
G1 F300 Z0.24
G1 F1500 E519.79467
G1 F1125 X154.523 Y70.801 E522.07237
G1 F1500 E515.57237
G1 F300 Z0.44
G0 F9000 X156.786 Y70.801 Z0.44
G1 F300 Z0.24
G1 F1500 E522.07237
